src/images_karasa_jaga_svg/cmd/lc_calloutshapes.round-rectangular-callout.svg

<svg height="24" viewBox="0 0 24 24" width="24" xmlns="http://www.w3.org/2000/svg" xmlns:xlink="http://www.w3.org/1999/xlink"><linearGradient id="a" gradientUnits="userSpaceOnUse" x1="72" x2="72" y1="128" y2="0"><stop offset="0" stop-color="#fff"/><stop offset=".59375" stop-color="#fff"/><stop offset=".84375" stop-color="#f1f1f1"/><stop offset=".90625" stop-color="#eaeaea"/><stop offset="1" stop-color="#dfdfdf"/></linearGradient><linearGradient id="b" gradientUnits="userSpaceOnUse" x1="5.816406" x2="122.18164" y1="63.998737" y2="63.998737"><stop offset="0" stop-color="#7c9fcf"/><stop offset=".5" stop-color="#7c9ece"/><stop offset="1" stop-color="#7b9dcf"/></linearGradient><g transform="matrix(.171875 0 0 .171875 1 1)"><path d="m26.386719 5.8183594c-11.86755 0-20.5703128 10.9638856-20.5703128 23.2734376v40.726562c0 12.309553 8.7018358 23.275391 20.5703128 23.275391h4.060547l-12.166016 20.27539a5.8210662 5.8210662 0 0 0 8.716797 7.46484l33.291015-27.74023h41.322268c11.86848 0 20.57031-10.965838 20.57031-23.275391v-40.726562c0-12.309552-8.70276-23.2734376-20.57031-23.2734376z" fill="url(#b)"/><path d="m26.386719 11.638672c-8.1715 0-14.75 7.783443-14.75 17.453125v40.726562c0 9.669683 6.5785 17.455079 14.75 17.455079h14.339843l-17.455078 29.089842 34.910157-29.089842h43.429689c8.1715 0 14.75-7.785396 14.75-17.455079v-40.726562c0-9.669682-6.5785-17.453125-14.75-17.453125z" fill="url(#a)"/></g></svg>

<?xml version="1.0" encoding="UTF-8" standalone="no"?>
<!-- Created with Inkscape (http://www.inkscape.org/) -->

<svg
   xmlns:dc="http://purl.org/dc/elements/1.1/"
   xmlns:cc="http://creativecommons.org/ns#"
   xmlns:rdf="http://www.w3.org/1999/02/22-rdf-syntax-ns#"
   xmlns:svg="http://www.w3.org/2000/svg"
   xmlns="http://www.w3.org/2000/svg"
   xmlns:xlink="http://www.w3.org/1999/xlink"
   xmlns:sodipodi="http://sodipodi.sourceforge.net/DTD/sodipodi-0.dtd"
   xmlns:inkscape="http://www.inkscape.org/namespaces/inkscape"
   version="1.1"
   id="svg2"
   width="128"
   height="128"
   viewBox="0 0 128 128"
   sodipodi:docname="lc_calloutshapes.round-rectangular-callout.svg"
   inkscape:export-filename="/home/rizmut/Dokumen/Rizmut/Github/libreoffice-style-karasa-jaga/build/images_karasa_jaga/cmd/lc_calloutshapes.round-rectangular-callout.png"
   inkscape:export-xdpi="16.5"
   inkscape:export-ydpi="16.5"
   inkscape:version="0.92.3 (unknown)">
  <metadata
     id="metadata8">
    <rdf:RDF>
      <cc:Work
         rdf:about="">
        <dc:format>image/svg+xml</dc:format>
        <dc:type
           rdf:resource="http://purl.org/dc/dcmitype/StillImage" />
        <dc:title></dc:title>
      </cc:Work>
    </rdf:RDF>
  </metadata>
  <defs
     id="defs6">
    <linearGradient
       inkscape:collect="always"
       id="linearGradient825">
      <stop
         style="stop-color:#f9f9fa;stop-opacity:1;"
         offset="0"
         id="stop821" />
      <stop
         style="stop-color:#f9f9fa;stop-opacity:0;"
         offset="1"
         id="stop823" />
    </linearGradient>
    <linearGradient
       inkscape:collect="always"
       xlink:href="#linearGradient825"
       id="linearGradient1536"
       x1="70.052383"
       y1="-18.468208"
       x2="62.030193"
       y2="84.412926"
       gradientUnits="userSpaceOnUse" />
    <linearGradient
       id="linearGradient3369">
      <stop
         id="stop3372"
         offset="0"
         style="stop-color:#ffffff;stop-opacity:1;" />
      <stop
         style="stop-color:#ffffff;stop-opacity:1;"
         offset="0.59375"
         id="stop3374" />
      <stop
         style="stop-color:#f1f1f1;stop-opacity:1;"
         offset="0.84375"
         id="stop3376" />
      <stop
         id="stop3378"
         offset="0.90625"
         style="stop-color:#eaeaea;stop-opacity:1;" />
      <stop
         id="stop3384"
         offset="1"
         style="stop-color:#dfdfdf;stop-opacity:1;" />
    </linearGradient>
    <linearGradient
       id="linearGradient7422">
      <stop
         style="stop-color:#7c9fcf;stop-opacity:1"
         offset="0"
         id="stop7424" />
      <stop
         id="stop5348"
         offset="0.5"
         style="stop-color:#7c9ece;stop-opacity:1" />
      <stop
         id="stop7426"
         offset="1"
         style="stop-color:#7b9dcf;stop-opacity:1" />
    </linearGradient>
    <linearGradient
       inkscape:collect="always"
       xlink:href="#linearGradient3369"
       id="linearGradient8528"
       x1="72"
       y1="128"
       x2="72"
       y2="0"
       gradientUnits="userSpaceOnUse" />
    <linearGradient
       inkscape:collect="always"
       xlink:href="#linearGradient7422"
       id="linearGradient882"
       x1="5.8164062"
       y1="63.998737"
       x2="122.18164"
       y2="63.998737"
       gradientUnits="userSpaceOnUse" />
  </defs>
  <sodipodi:namedview
     pagecolor="#ffffff"
     bordercolor="#666666"
     borderopacity="1"
     objecttolerance="10"
     gridtolerance="10"
     guidetolerance="10"
     inkscape:pageopacity="0"
     inkscape:pageshadow="2"
     inkscape:window-width="1366"
     inkscape:window-height="706"
     id="namedview4"
     showgrid="true"
     inkscape:snap-page="true"
     inkscape:snap-global="false"
     inkscape:zoom="2.0000001"
     inkscape:cx="-46.413293"
     inkscape:cy="63.883717"
     inkscape:window-x="0"
     inkscape:window-y="0"
     inkscape:window-maximized="1"
     inkscape:current-layer="svg2"
     inkscape:snap-smooth-nodes="true">
    <inkscape:grid
       type="xygrid"
       id="grid27"
       spacingx="5.8181"
       spacingy="5.8181"
       empspacing="1" />
  </sodipodi:namedview>
  <path
     id="circle1528"
     style="opacity:1;fill:url(#linearGradient1536);fill-opacity:1;stroke:none;stroke-width:3.85701394;stroke-linecap:round;stroke-linejoin:bevel;stroke-miterlimit:4;stroke-dasharray:none;stroke-dashoffset:0;stroke-opacity:0.73039216"
     r="42.122112"
     cy="64"
     cx="64" />
  <path
     sodipodi:type="inkscape:offset"
     inkscape:radius="5.8204842"
     inkscape:original="M 26.386719 11.638672 C 18.215219 11.638672 11.636719 19.422115 11.636719 29.091797 L 11.636719 69.818359 C 11.636719 79.488042 18.215219 87.273438 26.386719 87.273438 L 40.726562 87.273438 L 23.271484 116.36328 L 58.181641 87.273438 L 101.61133 87.273438 C 109.78283 87.273438 116.36133 79.488042 116.36133 69.818359 L 116.36133 29.091797 C 116.36133 19.422115 109.78283 11.638672 101.61133 11.638672 L 26.386719 11.638672 z "
     style="opacity:1;fill:url(#linearGradient882);fill-opacity:1.0;stroke:none;stroke-width:5.29160166;stroke-linecap:square;stroke-linejoin:bevel;stroke-miterlimit:4;stroke-dasharray:none;stroke-dashoffset:0;stroke-opacity:0.73039216"
     id="path872"
     d="m 26.386719,5.8183594 c -11.86755,0 -20.5703128,10.9638856 -20.5703128,23.2734376 v 40.726562 c 0,12.309553 8.7018358,23.275391 20.5703128,23.275391 h 4.060547 L 18.28125,113.36914 a 5.8210662,5.8210662 0 0 0 8.716797,7.46484 L 60.289062,93.09375 h 41.322268 c 11.86848,0 20.57031,-10.965838 20.57031,-23.275391 V 29.091797 c 0,-12.309552 -8.70276,-23.2734376 -20.57031,-23.2734376 z" />
  <path
     style="opacity:1;fill:url(#linearGradient8528);fill-opacity:1;stroke:none;stroke-width:5.29160166;stroke-linecap:square;stroke-linejoin:bevel;stroke-miterlimit:4;stroke-dasharray:none;stroke-dashoffset:0;stroke-opacity:0.73039216"
     d="M 26.386719 11.638672 C 18.215219 11.638672 11.636719 19.422115 11.636719 29.091797 L 11.636719 69.818359 C 11.636719 79.488042 18.215219 87.273438 26.386719 87.273438 L 40.726562 87.273438 L 23.271484 116.36328 L 58.181641 87.273438 L 101.61133 87.273438 C 109.78283 87.273438 116.36133 79.488042 116.36133 69.818359 L 116.36133 29.091797 C 116.36133 19.422115 109.78283 11.638672 101.61133 11.638672 L 26.386719 11.638672 z "
     id="rect8502" />
</svg>
